X: 27116
T: Miss Mariane Oliphant
R: strathspey
M: 4/4
K: Gmajor
D|G,>B, D>=F E<C CB,/C/|D>F A>c B<G GF/G/|G,>B, D>=F E<C c>e|1 dc/B/ cB/A/ B>G G>D:|2 dc/B/ cB/A/ B>G G>g/a/||
|:(3bag (3gab a<d f<a|g>f g/f/e/d/ f<B Bc/d/|1 c>e g>c B>d g>B|A>e d<F G2Gg/a/:|2 c>c' a>c B>d g>B|A<a f<d g2g||

